!!!!SEGMENT: pl-wtm--1481-sp-7693--001-005_szymanowski-karol--szesc-piesni-op-20-no-5-z-maurytanskich-spiewnych-sal.krn
!!!cenid: 19xx:62
!!!COM: Szymanowski, Karol
!!!COM-rismID: pe30106403
!!!CDT: 1882-1937
!!!CNT: Polish
!!!GTL: Sześć pieśni Op. 20
!!!OTL: No. 5. Z maurytańskich śpiewnych sal
!!!OMV: 005
!!!PDT: 1925
!!!AGN: Secular; Song
!!!YEC: Copyright 2022 Narodowy Instytut Fryderyka Chopina (https://polishscores.org)
!!!YEM: License CC-BY-4.0 (https://creativecommons.org/licenses/by/4.0)
!!!SMS-siglum: PL-Wtm
!!!SMS-shelfmark: 1481 śp 7693
!!!SMS-variant:
!!!SMS-altvar:
!!!SMS-shelfwork: 001-005 G
!!!NIFC-rismSourceID: 1001210639
!!!NIFC-rismChildID: 1001210639
!!!NIFC-islandoraID: pl-wtm:73423
!!!URL-pdf-islandora: https://repozytorium.nifc.pl/islandora/object/pl-wtm%3A73423/datastream/PDF/view
!!!URL-scan: https://polish.musicsources.pl/pl/lokalizacje/galeria/druki-muzyczne/18683/9 @EN{Scan on Polish Music Sources Website} @PL{Skany w portalu Dziedzictwo Muzyki Polskiej w otwartym dostępie}
!!!IIIF:
!!!ONB-nifc: UWAGA: str. 9-11.
!!!OMD: Poco vivace
!!!AIN: 1 piano 1 vox
!!!key: none
**kern	**kern	**dynam	**kern	**text	**text	**text	**dynam
*part2	*part2	*part2	*part1	*part1	*part1	*part1	*part1
*staff3	*staff2	*	*staff1	*staff1	*staff1	*staff1	*
*ICklav	*ICklav	*	*ICvox	*	*	*	*
*Ipiano	*Ipiano	*	*Ivox	*	*	*	*
*I"Piano	*I"Piano	*	*I"Canto	*	*	*	*
*clefF4	*clefG2	*	*clefG2	*	*	*	*
*k[]	*k[]	*	*k[]	*	*	*	*
*d:	*d:	*	*d:	*	*	*	*
*M4/8	*M4/8	*	*M4/8	*	*	*	*
*^	*	*	*	*	*	*	*
([8fn^/	8r	8r	.	8r	.	.	.	.
=1	=1	=1	=1	=1	=1	=1	=1	=1
8f/]	8Gn\ 8An 8c#X	(8a~\ 8dd#X 8aa	pp	2r	.	.	.	.
!LO:TUP:a	!	!	!	!	!	!	!	!
24F#X\LL) 24cn 24dn 24f#X	4.ryy	4a#X~\ 4ddn 4aa#X	.	.	.	.	.	.
(24FF#X\	.	.	<	.	.	.	.	.
24D\JJ	.	.	.	.	.	.	.	.
*Xtuplet	*	*	*	*	*	*	*	*
24G#X\LL	.	.	.	.	.	.	.	.
24A#X\	.	.	.	.	.	.	.	.
24d\JJ	.	.	.	.	.	.	.	.
24d#X\LL	.	8b'^\) 8bb	.	.	.	.	.	.
24e\	.	.	.	.	.	.	.	.
[24fn^\JJ)	.	.	[	.	.	.	.	.
*v	*v	*	*	*	*	*	*	*
=2	=2	=2	=2	=2	=2	=2	=2
*	*	*	*^	*	*	*	*
(8Gn\ 8An 8c#X 8f]	(8an~\ 8dd#X 8aan	.	8r	8ryy	.	.	.	.
*tuplet	*	*	*	*	*	*	*	*
!LO:TUP:a	!	!	!	!	!	!	!	!
24F#X\LL) 24cn 24dn 24f#X	4a#X~\ 4ddn 4aa#X	<	16a#X/	8a#\	Z mau-	Des	Vom	.
(24FF#X\	.	.	.	.	.	.	.	.
.	.	.	16a#/	.	-ry-	pé-	.	.
24D\JJ	.	.	.	.	.	.	.	.
*Xtuplet	*	*	*	*	*	*	*	*
24G#X\LL	.	.	8dd\	8ryy	-tańs-	-nom-	mau-	.
24A#X\	.	.	.	.	.	.	.	.
24d\JJ	.	.	.	.	.	.	.	.
24d#X\LL	8b'^\) 8bb	[[	16b/	8b\	-kich	-bres	-ri-	.
24e\	.	.	.	.	.	.	.	.
.	.	.	16b/	.	.	.	-schen	.
[24fn^\JJ)	.	.	.	.	.	.	.	.
*	*	*	*v	*v	*	*	*	*
!!LO:LB:g=original
=3	=3	=3	=3	=3	=3	=3	=3
*^	*^	*	*	*	*	*	*
(8f/L_	(4Gn\ 4An 4c#X	(8an/L 8aan	4ffn\	<	8cc#X\	śpiew-	du	Freu-	.
24f/L]	.	8a#X/J 8aa#X	.	.	8ee\	-nych	pa-	-den-	.
24e-X/	.	.	.	.	.	.	.	.	.
24dn/JJ)	.	.	.	[	.	.	.	.	.
(8A-X\L) 8d-X 8gn	4ryy	(<8een/L 8eeen	[<8ggn\L	.	4cc#\	sal	-lais	-mal	.
*	*	*	*Xtuplet	*	*	*	*	*	*
8An\J) 8cn 8an	.	8ccn/J)) 8cccn	24gg\L]	.	.	.	.	.	.
.	.	.	24gg-X\	.	.	.	.	.	.
.	.	.	(>24ffn\JJ	.	.	.	.	.	.
*	*	*v	*v	*	*	*	*	*	*
*	*clefG2	*	*	*	*	*	*	*
=4	=4	=4	=4	=4	=4	=4	=4	=4
([8an~/L	[4Bn\ [4c#X	(8cc#X\L) 8ee#X 8ccc#X	>	4r	.	.	.	.
24a/L]	.	8dd\J 8ddd	.	.	.	.	.	.
24gn/	.	.	.	.	.	.	.	.
24f#X/JJ	.	.	.	.	.	.	.	.
16e#X/)	16B\] 16c#]	8ggn\L 8gggn	.	8r	.	.	.	.
16r	8.ryy	.	.	.	.	.	.	.
!	!	!LO:TX:b:i:t=rit.	!	!	!	!	!	!
16ryy	.	8dd#X\J) 8ddd#X	.	8dd#X\	wy-	ac-	an	.
*clefF4	*	*	*	*	*	*	*	*
!	!	!	!LO:DY:b=2	!	!	!	!	!
((16DDDn/	.	.	] pp	.	.	.	.	.
*v	*v	*	*	*	*	*	*	*
!!LO:PB:g=original
=5	=5	=5	=5	=5	=5	=5	=5
*	*	*^	*	*	*	*	*
!	!	!LO:DY:b	!	!	!	!	!	!
8DDD/)) 8DD	(8een~\ 8ggn 8aa#X 8eeen	pp <	.	4.ee\	-bie-	-court-	mei-	.
(24E\LL	4ddn\ 4ff#X 4gg#X 4dddn	.	<	.	.	.	.	.
24F#X\	.	.	.	.	.	.	.	.
24A#X\JJ	.	.	.	.	.	.	.	.
24B#X\LL	.	.	.	.	.	.	.	.
24c#X\	.	.	.	.	.	.	.	.
24dn\JJ	.	.	[	.	.	.	.	.
24en\LL)	8f#X\) 8a#X 8ff#X	[[	.	8dd\	-ga	-vers	-ne	.
(24c#X\	.	.	.	.	.	.	.	.
24Bn\JJ	.	.	.	.	.	.	.	.
*	*	*v	*v	*	*	*	*	*
=6	=6	=6	=6	=6	=6	=6	=6
*	*^	*	*	*	*	*	*
24e'\LL)	(8gn\L 8cc#X 8ggn	4ryy	.	4cc#X\	ku	moi	Brust	.
(24cn\	.	.	.	.	.	.	.	.
24B-X\JJ	.	.	.	.	.	.	.	.
24c'\LL)	8g#X\J 8ddn 8gg#X	.	.	.	.	.	.	.
(24G#X\	.	.	.	.	.	.	.	.
24Gn\JJ	.	.	.	.	.	.	.	.
*	*	*tuplet	*	*	*	*	*	*
!	!	!LO:TUP:a	!	!	!	!	!	!
24Bn'\LL)	4dd#X/	(>12an\L 12aan	.	8b\	mnie	ma	stürzt	.
(24G\	.	.	.	.	.	.	.	.
24F#X\JJ)	.	12a#X\ 12aa#X	.	.	.	.	.	.
16r	.	.	.	8b\	hu-	.	ein	.
.	.	12b\J)) 12bb	.	.	.	.	.	.
(>[16CCC#X/	.	.	.	.	.	.	.	.
*	*v	*v	*	*	*	*	*	*
=7	=7	=7	=7	=7	=7	=7	=7
*	*	*^	*	*	*	*	*
8CCC#/]) 8CC#X	(8een\ 8ggn 8aa#X 8eeen	<	.	(8ee\	-ry-	bel-	Mäd-	.
(24E\LL	4dd#X\ 4ff#X 4gg#X 4ddd#X	.	<	4dd#X\)	.	.	.	.
24F#X\	.	.	.	.	.	.	.	.
24A#X\JJ	.	.	.	.	.	.	.	.
24B#X\LL	.	.	.	.	.	.	.	.
24c#X\	.	.	.	.	.	.	.	.
24dn\JJ	.	.	[	.	.	.	.	.
24e\LL)	8f#X\) 8a#X 8ff#X	[	.	8cc#X\	-sa,	-le.	-chen.	.
(24c#\	.	.	.	.	.	.	.	.
24B#X\JJ	.	.	.	.	.	.	.	.
*	*	*v	*v	*	*	*	*	*
!!LO:LB:g=original
=8	=8	=8	=8	=8	=8	=8	=8
*	*^	*	*	*	*	*	*
24e-X'\LL)	(8gn\L 8cc#X 8ggn	4ryy	.	4r	.	.	.	.
(24cn\	.	.	.	.	.	.	.	.
24B-X\JJ	.	.	.	.	.	.	.	.
24c'\LL)	8g#X\J 8dd 8gg#X	.	>	.	.	.	.	.
(24G#X\	.	.	.	.	.	.	.	.
24Gn\JJ	.	.	.	.	.	.	.	.
!	!LO:TX:t=P:problem=klamra łukowa	!	!	!LO:TX:t=P:problem=klamra łukowa	!	!	!	!
!	!LO:TUP:a	!	!	!	!	!	!	!
24Bn'\LL)	12an\L 12aan	4dd#X/	.	12a/	czar-	La	Der	.
(24G\	.	.	.	.	.	.	.	.
24F#X\JJ)	12a#X\ 12aa#X	.	.	12a#X/	-ny	flam-	schwarz	.
16r	.	.	.	.	.	.	.	.
.	12b\J) 12bb	.	]	12b\	pło-	-me	auf-	.
(>[16CCCn/	.	.	.	.	.	.	.	.
=9	=9	=9	=9	=9	=9	=9	=9	=9
*^	*	*	*	*	*	*	*	*
8CCC/]) 8CC	8ryy	(8een^\L 8ggn 8bb-X 8eeen	4ryy	mp >	4ee\	-mien-	noi-	-lo-	.
24r	24ryy	8dd#X\J) 8ddd#X	.	.	.	.	.	.	.
24AA#X/LL	[12AA#\	.	.	.	.	.	.	.	.
[24A#X/JJ	.	.	.	.	.	.	.	.	.
*	*	*Xtuplet	*	*	*	*	*	*	*
8AA#\L] 8A#]	4ryy	(24d#X~>/LL	24ryy	] pp	8d#X/	-ny,	-re	-dern-	.
.	.	24dd#/	[12dd#\	.	.	.	.	.	.
.	.	[<24d#/J	.	.	.	.	.	.	.
(24e\L	.	8d#/J]) 8dd#]	8ryy	.	8e/	jed-	de	-de	.
24E\	.	.	.	.	.	.	.	.	.
[24e\JJ)	.	.	.	.	.	.	.	.	.
=10	=10	=10	=10	=10	=10	=10	=10	=10	=10
8e\L]	4.ryy	(24d#X~>/LL	24ryy	.	8ee\	-wab-	ses	Sei-	.
.	.	24dd#X/	[12dd#\	.	.	.	.	.	.
.	.	[<24d#/J	.	.	.	.	.	.	.
(24e\L	.	8d#/J]) 8dd#]	8ryy	.	8dd#X\	-ny	fins	-den-	.
24E\	.	.	.	.	.	.	.	.	.
24e\JJ)	.	.	.	.	.	.	.	.	.
8CCCn/ 8CCn	.	(8een^\L 8ggn 8bb-X 8eeen	4ryy	>	([>4e~>/	szal	voi-	-schal	.
24r	24ryy	8dd#X\J) 8ddd#X	.	]	.	.	.	.	.
24AA#X/LL	[12AA#\	.	.	.	.	.	.	.	.
[24A#X/JJ	.	.	.	.	.	.	.	.	.
*v	*v	*	*	*	*	*	*	*	*
!!LO:LB:g=original
=11	=11	=11	=11	=11	=11	=11	=11	=11
8AA#X\L] 8A#X]	(24d#X~>/LL	24ryy	.	4e/]	.	.	.	.
.	24dd#X/	[12dd#\	.	.	.	.	.	.
.	[<24d#/J	.	.	.	.	.	.	.
(24e\L	8d#/J]) 8dd#]	8ryy	>	.	.	.	.	.
24E\	.	.	.	.	.	.	.	.
[24e\JJ)	.	.	.	.	.	.	.	.
!	!	!	!	!LO:TX:a:i:t=rallent.	!	!	!	!LO:HP:a
8e\L]	(24d#~>/LL	4ryy	.	8c#X/)	.	-les	.	>
.	24dd#/	.	.	.	.	.	.	.
.	24d#/J)	.	.	.	.	.	.	.
(24e\L	(>8cn~/J 8ccn	.	]	8cn/	z na-	dé-	ent-	]]
24E\	.	.	.	.	.	.	.	.
24e\JJ)	.	.	.	.	.	.	.	.
=12	=12	=12	=12	=12	=12	=12	=12	=12
!	!	!	!	!LO:TX:a:B:t=Meno mosso	!	!	!	!
8EEE/ 8EE	8b/L	24B\LL	p <	8Bn/	-gie-	-couv-	-blößt	.
.	.	24e\ 24g#X	.	.	.	.	.	.
.	.	[24cn^\JJ	.	.	.	.	.	.
8GG#X':/ 8BB: 8E: 8G#X:	8ccn/	24c\LL]	.	8cn/	-go	-re	die	.
.	.	24e\ 24g#	.	.	.	.	.	.
.	.	[24g#\JJ	.	.	.	.	.	.
(8BB:\L 8E: 8G#: 8B:	8gg#X/	24g#^\LL]	[	8g#X/	ło-	son	schim-	.
.	.	24b\ 24ee	.	.	.	.	.	.
.	.	[24gn^\JJ	.	.	.	.	.	.
8Cn:\J 8E: 8G#XZ: 8cn:	8ggn/J)	24g\LL]	.	16gn/	-na	sein	-mern	.
.	.	24b\ 24ee	.	.	.	.	.	.
.	.	.	.	16g/	się	de	den	.
.	.	(24b^\JJ	.	.	.	.	.	.
*clefG2	*	*	*	*	*	*	*	*
=13	=13	=13	=13	=13	=13	=13	=13	=13
*	*8va	*8va	*	*	*	*	*	*
8G#X:/L 8B: 8e: 8g#X:	(8bb/L	24b\LL)	<	(4.ccn~\	zwi-	nei-	Len-	.
.	.	24ee\ 24gg#X	.	.	.	.	.	.
.	.	[24ccn^\JJ	.	.	.	.	.	.
8Gn:/J) 8B: 8e: 8gn:	8cccn/	24cc\LL]	[	.	.	.	.	.
.	.	24ee\ 24gg#Z	.	.	.	.	.	.
.	.	[24gg#\JJ	.	.	.	.	.	.
(8B:/L 8e: 8g#X: 8b:	8ggg#X/	24gg#^\LL]	>	.	.	.	.	.
.	.	24bb\ 24eee	.	.	.	.	.	.
.	.	[24ggn^\JJ	.	.	.	.	.	.
8cn:/J 8e: 8g#X: 8ccn:	8gggn/J	24gg\LL]	.	8b\)	.	.	.	.
.	.	24bb\ 24eee	.	.	.	.	.	.
.	.	[24bb^\JJ	.	.	.	.	.	.
*	*v	*v	*	*	*	*	*	*
!!LO:PB:g=original
=14	=14	=14	=14	=14	=14	=14	=14
*^	*	*	*	*	*	*	*
8g#X/L 8gg#X	4b\ 4ee	24bb\LL]) 24eee 24ggg#X 24bbb	.	4b\	-sa.	-ge.	-den.	.
.	.	(24ggg#\	.	.	.	.	.	.
.	.	24gg#X\JJ	.	.	.	.	.	.
8gn/J 8ggn	.	24ggg#XZ\LL	.	.	.	.	.	.
.	.	24gg#XZ\	]	.	.	.	.	.
.	.	24ggg#\JJ	.	.	.	.	.	.
8b\) 8bb	4ryy	24gg#\LL	ppp	4r	.	.	.	.
.	.	24ggg#\	.	.	.	.	.	.
.	.	24gg#\JJ	.	.	.	.	.	.
*clefF4	*	*	*	*	*	*	*	*
16EEE-X/ 16EE-X	.	24ggg#\LL	.	.	.	.	.	.
.	.	24gg#\	.	.	.	.	.	.
*clefG2	*	*	*	*	*	*	*	*
(16A-X~/LL 16a-X	.	.	.	.	.	.	.	.
.	.	24ggg#\JJ)	.	.	.	.	.	.
*v	*v	*	*	*	*	*	*	*
=15	=15	=15	=15	=15	=15	=15	=15
16B-X/JJ) 16d-X	(([24aa-X~\LL	pp	8r	.	.	.	.
!	!LO:TX:b:i:t=dolce	!	!	!	!	!	!
.	24aa-\]) 24aaa-X	.	.	.	.	.	.
(16An~/LL 16an	.	.	.	.	.	.	.
.	24bb-X\JJ 24ddd-X	.	.	.	.	.	.
16d-X/JJ) 16f-X	([24aan~\LL	<	16r	.	.	.	.
.	24aa\]) 24aaan	.	.	.	.	.	.
(16B-X~/LL 16b-X	.	.	16f-X/	Cy-	Cy-	Zy-	.
.	24ddd-\JJ 24fff-X	.	.	.	.	.	.
16d-/JJ) 16f-	([24bb-X~\LL	.	8.f-~/	-pry-	-près	-pres-	.
.	24bb-\]) 24bbb-X	.	.	.	.	.	.
(16d-X~/LL 16dd-X	.	.	.	.	.	.	.
.	24ddd-\JJ 24fff-	.	.	.	.	.	.
16f-/JJ) 16gn	(24ddd-~\LL	.	.	.	.	.	.
.	24ddd-\) 24dddd-X	.	.	.	.	.	.
(16F#X~/LL 16f#X	.	.	16e-X/	-sy,	noirs,	-sen,	.
.	24fff-\JJ 24gggn	[[	.	.	.	.	.
=16	=16	=16	=16	=16	=16	=16	=16
*M3/4	*M3/4	*	*M3/4	*	*	*	*
16B-X/JJ) 16d-X	([24ff#X~\LL	>	4r	.	.	.	.
.	24ff#\]) 24fff#X	.	.	.	.	.	.
(16Gn~/LL 16gn	.	.	.	.	.	.	.
.	24bb-X\JJ 24ddd-X	.	.	.	.	.	.
16B-/JJ) 16d-	([24ggn~\LL	.	.	.	.	.	.
.	24gg\]) 24gggn	.	.	.	.	.	.
(16A-X~/LL 16a-X	.	.	.	.	.	.	.
.	24bb-\JJ 24ddd-	.	.	.	.	.	.
16Bn/JJ) 16dn	([24aa-X~\LL	.	8r	.	.	.	.
.	24aa-\]) 24aaa-X	.	.	.	.	.	.
16r	.	.	.	.	.	.	.
.	24bbn\JJ) 24dddn	.	.	.	.	.	.
*clefF4	*	*	*	*	*	*	*
8EEEn/ 8EEn	(24aaa-\LL	.	([4.ddn~\	księ-	lu-	Mond-	.
.	24aa-\	.	.	.	.	.	.
.	24aaa-\JJ	.	.	.	.	.	.
16r	24aa-\LL	] pp	.	.	.	.	.
.	24aaa-\	.	.	.	.	.	.
([<16A-X\	.	.	.	.	.	.	.
.	24aa-\JJ	.	.	.	.	.	.
8A-\]) 8a-X	24aaa-\LL	.	.	.	.	.	.
.	24aa-\	.	.	.	.	.	.
.	24aaa-\JJ)	.	.	.	.	.	.
!!LO:LB:g=original
=17	=17	=17	=17	=17	=17	=17	=17
*M4/8	*M4/8	*	*M4/8	*	*	*	*
16EEE-X/ 16EE-X	(([24aa-X~\LL	<	16dd\]	.	.	.	.
.	24aa-\]) 24aaa-X	.	.	.	.	.	.
*clefG2	*	*	*	*	*	*	*
(16An~/LL 16an	.	.	16cc#X\)	.	.	.	.
.	24bb-X\JJ 24ddd-X	.	.	.	.	.	.
16d-X/JJ) 16f-X	([24aan~\LL	.	4cc#\	-życ,	-ne,	-schein,	.
.	24aa\]) 24aaan	.	.	.	.	.	.
(16B-X~/LL 16b-X	.	.	.	.	.	.	.
.	24ddd-\JJ 24fff-X	.	.	.	.	.	.
16d-/JJ) 16f-	([24bb-X~\LL	.	.	.	.	.	.
.	24bb-\]) 24bbb-X	.	.	.	.	.	.
(16d-X~/LL 16dd-X	.	.	.	.	.	.	.
.	24ddd-\JJ 24fff-	.	.	.	.	.	.
16f-X/JJ) 16gn	(24ddd-~\LL	.	8r	.	.	.	.
.	24ddd-\) 24dddd-X	.	.	.	.	.	.
(16F#X~/LL 16f#X	.	.	.	.	.	.	.
.	24fff-X\JJ 24gggn	[	.	.	.	.	.
=18	=18	=18	=18	=18	=18	=18	=18
16B-X/JJ) 16d-X	([24ff#X~\LL	>	8f#X~/	fon-	on-	Brun-	.
.	24f#f\]) 24fff#X	.	.	.	.	.	.
(16Gn~/LL 16gn	.	.	.	.	.	.	.
.	24bb-X\JJ 24ddd-X	.	.	.	.	.	.
16B-/JJ) 16d-	([24ggn~\LL	.	8gn~/	-tan	-des	-nen-	.
.	24gg\]) 24gggn	.	.	.	.	.	.
(16A-X~/LL 16a-X	.	.	.	.	.	.	.
.	24bb-\JJ 24ddd-	.	.	.	.	.	.
16c-X/JJ) 16dn	([24aa-X~\LL	.	8a-X~/	szmer,	bleues,	-sang,	.
.	24aa-\]) 24aaa-X	.	.	.	.	.	.
16r	.	.	.	.	.	.	.
.	24bbn\JJ 24dddn	.	.	.	.	.	.
*clefF4	*	*	*	*	*	*	*
[8BBBB-X~/L [<8BBB-X	24aaa-\LL	] ppp	16r	.	.	.	.
.	24aa-\	.	.	.	.	.	.
.	.	.	16a-/	za-	ex-	und	.
.	24aaa-\JJ)	.	.	.	.	.	.
=19	=19	=19	=19	=19	=19	=19	=19
!	!	!	!	!	!	!	!LO:HP:a
8BBBB-/J] 8BBB-]	(24aa-X\LL	pp	8a-X/	-cza-	-ta-	still	<
.	24aaa-X\	.	.	.	.	.	.
.	24bbn\JJ	<	.	.	.	.	.
(8BBn\L 8D#X	24gggn\LL	.	8bn\	-ro-	-ses	ver-	.
.	24ggn\	.	.	.	.	.	.
.	24bb\JJ	.	.	.	.	.	.
8En\J) 8G#X	24gg-X\LL	.	8ddn\	-wa-	my-	-wunsch-	.
.	24ggg-X\	.	.	.	.	.	.
.	24bb-X\JJ	.	.	.	.	.	.
(8Gn\L 8Bn	24fffn\LL	.	8dd-X\	-ne	-sté-	-ne	[[
.	24ffn\	.	.	.	.	.	.
.	24ddd-X\JJ	[[	.	.	.	.	.
!!LO:LB:g=original
=20	=20	=20	=20	=20	=20	=20	=20
!	!	!	!	!	!	!	!LO:HP:a
8cn\J) 8en	24eeen/LL	.	8.ccn\	gan-	-rieu-	Gän-	>
.	24een/	.	.	.	.	.	.
.	24aa-X/JJ	.	.	.	.	.	.
*clefG2	*	*	*	*	*	*	*
((8e-X/L 8gn	24ee-X/LL	.	.	.	.	.	.
.	24eee-X/	.	.	.	.	.	.
.	.	.	16gn/	-ki.	-ses.	-ge.	.
.	24ggn/JJ	.	.	.	.	.	.
[8f#X/J) 8an	24dddn/LL	.	4r	.	.	.	]
.	24ddn/	.	.	.	.	.	.
.	24aan/JJ	.	.	.	.	.	.
8f#/]) 8a#X	24cc#X/LL	.	.	.	.	.	.
.	24ccc#X/	.	.	.	.	.	.
.	24b#X/JJ) 24bb#X	.	.	.	.	.	.
*	*X8va	*	*	*	*	*	*
!LO:CL:ed	!	!	!	!	!	!	!
*clefF4	*	*	*	*	*	*	*
=21	=21	=21	=21	=21	=21	=21	=21
!LO:TX:t=P:problem=brakujący klucz F4	!	!	!LO:TX:a:i:t=a tempo (come prima)	!	!	!	!
(<24CCC#X/LL	(>8An~/ 8c#X 8fn 8an	ppp <	2r	.	.	.	.
24CC#X/	.	.	.	.	.	.	.
[24FF#X/JJ	.	.	.	.	.	.	.
24FF#/LL]	4A#X/ 4d 4f#X 4a#X	.	.	.	.	.	.
24Cn/	.	.	.	.	.	.	.
24Dn/JJ	.	.	.	.	.	.	.
24F#X\LL	.	.	.	.	.	.	.
24A#X\	.	.	.	.	.	.	.
24dn\JJ	.	[	.	.	.	.	.
!LO:TX:t=P:problem=mixed beam	!	!	!	!	!	!	!
24d#X/LL	8B/) 8b	.	.	.	.	.	.
24en>\	.	.	.	.	.	.	.
24e#X>\JJ)	.	.	.	.	.	.	.
=22	=22	=22	=22	=22	=22	=22	=22
24r	(8an~\ 8cc#X 8ffn 8aan	.	4r	.	.	.	.
!	!	!LO:HP:b=2	!	!	!	!	!
(24CCC#X/LL	.	<	.	.	.	.	.
24CC#X/JJ	.	.	.	.	.	.	.
24FF#X/LL	4a#X\ 4cc# 4ff#X 4aa#X	.	.	.	.	.	.
24Cn/	.	.	.	.	.	.	.
24Dn/JJ	.	.	.	.	.	.	.
24F#X\LL	.	.	8r	.	.	.	.
24A#X\	.	.	.	.	.	.	.
24dn\JJ	.	.	.	.	.	.	.
24d#X\LL	8b\) 8bb	[	8b\	Od-	Je-	Ich	.
24e\	.	.	.	.	.	.	.
24e#X\JJ)	.	.	.	.	.	.	.
!!LO:PB:g=original
=23	=23	=23	=23	=23	=23	=23	=23
24r	(8ee\L 8ggn 8aa#X 8eee	.	8ee\	-da-	-sè-	gab	.
(24DD/LL	.	.	.	.	.	.	.
24D/JJ	.	.	.	.	.	.	.
!	!	!	!LO:TX:a:i:t=avvivando	!	!	!	!
24E\LL	8dd\J 8ff#X 8gg#X 8ddd	.	8ddn\	-łem	-me	die	.
24F#X\	.	.	.	.	.	.	.
24A#X\JJ	.	.	.	.	.	.	.
24B#X\LL	8f#X\L 8a#X 8ff#X	.	8f#X/	wszyst-	les	gan-	.
24c#X\	.	.	.	.	.	.	.
24d#X\JJ	.	.	.	.	.	.	.
!	!	!LO:HP:t=cre-scen-do:ext=cd	!	!	!	!	!
24e\LL	8gn\J 8cc#X 8ggn	<	8gn/	-kie	é-	-ze	.
24cn\	.	.	.	.	.	.	.
(24B-X\JJ)	.	.	.	.	.	.	.
=24	=24	=24	=24	=24	=24	=24	=24
24c\LL)	8g#X\L 8dd 8gg#X	.	4.g#X/	gwiaz-	-toi-	Ster-	.
(24G#X\	.	.	.	.	.	.	.
24Gn\JJ	.	.	.	.	.	.	.
24Bn\LL)	8a\J 8dd#X 8aa	.	.	.	.	.	.
(24G\	.	.	.	.	.	.	.
24F#X\JJ	.	.	.	.	.	.	.
*	*tuplet	*	*	*	*	*	*
!	!LO:TX:t=P:problem=klamra łukowa	!	!	!	!	!	!
!	!LO:TUP:a	!	!	!	!	!	!
16A#X'\)	12a#X\L 12ddn 12ff#X 12aa#X	[	.	.	.	.	.
16r	.	.	.	.	.	.	.
.	12b\ 12bb	.	.	.	.	.	.
[8EEE/ [8EE	.	.	8b#X\	-dy	-les	-nen-	.
.	12b#X\J) 12bb#X	.	.	.	.	.	.
=25	=25	=25	=25	=25	=25	=25	=25
24EEE/LL] 24EE]	((8ff#X~\L 8aan 8bb#X 8fff#X	.	(8b#X\L	sfer	d`or	-pracht	.
(24EE/	.	.	.	.	.	.	.
24E/JJ	.	.	.	.	.	.	.
24F#X\LL	8een\J) 8ggn 8aa#X 8eeen	.	8cc#X\J)	.	.	.	.
24G#X\	.	.	.	.	.	.	.
24B#X\JJ	.	.	.	.	.	.	.
24c##X\LL	8g#X\L 8b#X 8gg#X	.	4r	.	.	.	.
24d#X\	.	.	.	.	.	.	.
24e#X\JJ	.	.	.	.	.	.	.
24f#X\LL)	8an\J 8dd#X 8aan	.	.	.	.	.	.
(24dn\	.	.	.	.	.	.	.
24cn\JJ	.	.	.	.	.	.	.
!!LO:LB:g=original
=26	=26	=26	=26	=26	=26	=26	=26
24dn\LL)	8a#X\L 8ee 8aa#X	<	4r	.	.	.	.
(24A#X\	.	.	.	.	.	.	.
24An\JJ	.	.	.	.	.	.	.
24c#X\LL)	8b\J 8ee#X 8bb	.	.	.	.	.	.
(24A\	.	.	.	.	.	.	.
24G#X\JJ	.	.	.	.	.	.	.
!	!LO:TX:t=P:problem=klamra łukowa	!	!	!	!	!	!
!	!LO:TUP:a	!	!	!	!	!	!
8cn\)	12ccn\L 12een 12gg#X 12cccn	.	8r	.	.	.	.
.	12cc#X\ 12ccc#X	.	.	.	.	.	.
[8FFF#X^/ [8FF#X	.	[ sf	8dd\	Za	aux	für	.
.	12dd\J) 12ddd	.	.	.	.	.	.
=27	=27	=27	=27	=27	=27	=27	=27
*^	*^	*	*	*	*	*	*
!	!	!	!	!	!LO:TX:a:i:t=poco meno	!	!	!	!
8FFF#/L_ 8FF#_	4ryy	(8gg#X^\L 8bbn 8dddn 8ggg#X	4ryy	f <	(4gg#X^\	u-	pieds	ei-	.
24FFF#/L] 24FF#]	.	8ff#X\J) 8bb 8ddd#X 8fff#X	.	.	.	.	.	.	.
24BB#X/	.	.	.	.	.	.	.	.	.
[24C#X/JJ	.	.	.	.	.	.	.	.	.
[4AnZ^/	8C#\]	4f#X^/	([8B#X\L	[	12.ff#X\)	-ścisk	de	-nen	.
*	*	*	*Xtuplet	*	*	*	*	*	*
.	8CCC#X^/ 8CC#X	.	24B#\L]	.	12an/	mau-	la	Kuß	.
.	.	.	24c#X\	.	.	.	.	.	.
.	.	.	24c##X\JJ)	.	24a/	-ry-	mau-	der	.
=28	=28	=28	=28	=28	=28	=28	=28	=28	=28
(8AnX\L] 8dn 8f#X	8ryy	(8ff#X~\L 8bb#X 8fff#X	4ryy	>	8ff#X~\	-tan-	-res-	Mau-	.
8Gn\J) 8e 8gn	24c#X/LL	8ee\J) 8aa#X 8eee	.	]	8ee\	-ki,	-que,	-rin,	.
.	24d/	.	.	.	.	.	.	.	.
.	24d#X/JJ	.	.	.	.	.	.	.	.
(24FFF#X/LL 24FF#X	4ryy	4Gn~/ 4en	([8A#X\L	p >	4r	.	.	.	.
24BB#X/	.	.	.	.	.	.	.	.	.
24C#X/J	.	.	.	.	.	.	.	.	.
8Gn^/J)	.	.	24A#\L]	.	.	.	.	.	.
.	.	.	24B\	.	.	.	.	.	.
.	.	.	24cn\JJ)	]	.	.	.	.	.
*v	*v	*	*	*	*	*	*	*	*
!!LO:LB:g=original
=29	=29	=29	=29	=29	=29	=29	=29	=29
!	!	!	!	!LO:TX:a:B:t=Meno mosso	!	!	!	!
8BBBB/ 8BBB	(8b/L	24B\LL	.	8r	.	.	.	.
.	.	24e\ 24g#X	.	.	.	.	.	.
.	.	[24cn~\JJ	<	.	.	.	.	.
8GG#X:/ 8BB: 8E: 8G#X:	8cc/	24c\LL]	.	16r	.	.	.	.
.	.	24e\ 24g#	.	.	.	.	.	.
.	.	.	.	16cn/	za	aux	für	.
.	.	[24g#~\JJ	.	.	.	.	.	.
8BB:\L 8E: 8G#: 8B:	8gg#X/	24g#\LL]	.	8B/	u-	pieds	ei-	.
.	.	24b\ 24ee	.	.	.	.	.	.
.	.	[24gn~\JJ	.	.	.	.	.	.
8Cn:\J 8E: 8G#: 8cn:	8ggn/J)	24g\LL]	.	8c/	-ścisk	de	-nen	.
.	.	24b\ 24ee	.	.	.	.	.	.
.	.	[24b~\JJ	[	.	.	.	.	.
*clefG2	*	*	*	*	*	*	*	*
=30	=30	=30	=30	=30	=30	=30	=30	=30
8G#X:/L 8B: 8e: 8g#X:	(8bb/L	24b\LL]	.	8g#X/	mau-	la	Kuß	.
.	.	24ee\ 24gg#X	.	.	.	.	.	.
.	.	[24ccn~\JJ	.	.	.	.	.	.
8Gn:/J 8B: 8e: 8gn:	8cccn/	24cc\LL]	>	8gn/	-ry-	mau-	der	.
.	.	24ee\ 24gg#X	.	.	.	.	.	.
.	.	[24gg#~\JJ	.	.	.	.	.	.
8B:/L 8e: 8g#X: 8b:	8ggg#X/	24gg#\LL]	.	[4ccn~\	-tan-	-res-	Mau-	.
.	.	24bb\ 24eee	.	.	.	.	.	.
.	.	[24ggn~\JJ	.	.	.	.	.	.
8cn:/J 8e: 8g#X: 8ccn:	8gggn/J	24gg\LL]	.	.	.	.	.	.
.	.	24bb\ 24eee	.	.	.	.	.	.
.	.	(>24bb\JJ	]	.	.	.	.	.
*	*v	*v	*	*	*	*	*	*
=31	=31	=31	=31	=31	=31	=31	=31
*	*8va	*	*	*	*	*	*
*^	*	*	*	*	*	*	*
8g#X:\L 8b: 8ee: 8gg#X:	4ryy	24bb\LL)) 24bbb	.	(16cc\LL]	.	.	.	.
.	.	(24ggg#X\	.	.	.	.	.	.
.	.	.	.	16b\JJ)	.	.	.	.
.	.	24gg#X\JJ	.	.	.	.	.	.
!LO:TX:b:i:t=rallent.	!	!	!	!	!	!	!	!
8gn:\J 8b: 8ee: 8ggn:	.	24ggg#XZ\LL	.	4b\	-ki.	-que.	-rin.	.
.	.	24gg#XZ\	.	.	.	.	.	.
.	.	24ggg#\JJ	.	.	.	.	.	.
!LO:TX:t=P:problem=mixed beam	!	!	!LO:HP:b=2:t=dimin.	!	!	!	!	!
8bb/L	4b\ 4ee	24gg#\LL	>	.	.	.	.	.
.	.	24ggg#\	.	.	.	.	.	.
.	.	24gg#\JJ	.	.	.	.	.	.
8cc#X>\J	.	24gggn\LL	>	8r	.	.	.	.
.	.	24ggn\	.	.	.	.	.	.
.	.	24ggg\JJ	.	.	.	.	.	.
*v	*v	*	*	*	*	*	*	*
*clefF4	*	*	*	*	*	*	*
=32	=32	=32	=32	=32	=32	=32	=32
4.BBBB;/ 4.BBB	4.ff#X;\) 4.ddd#X 4.fff#X	] ppp	2r;	.	.	.	.
*	*X8va	*	*	*	*	*	*
8r	8r	.	.	.	.	.	.
==	==	==	==	==	==	==	==
*-	*-	*-	*-	*-	*-	*-	*-
!!!system-decoration: s1{(s2,s3)}
!!!RDF**kern: < = below
!!!RDF**kern: > = above
!!!RDF**kern: Z = editorial accidental, paren
!!!ENC: Filip Voros
!!!END: 2023-10-09
!!!EED: Marta Chmielewska
!!!EEV: 2023-10-21
